images/matic-network-logo.svg

<svg height="250" viewBox="0 0 250 250" width="250" xmlns="http://www.w3.org/2000/svg"><g fill-rule="evenodd"><path d="m103.796875 112.402344 21.273437 47.160156 31.664063-18.257812h.039063v-36.511719zm0 0" fill="#2bbdf7"/><path d="m197.585938 77.40625-19.714844-7.433594-21.117188-1.714844v113.40625l31.683594 18.257813 25.039062-51.085937-15.773437-49.546876zm0 0" fill="#2891f9"/><path d="m195.8125 68.277344-7.355469 18.234375v113.488281l31.683594-18.257812v-113.464844zm0 0" fill="#2bbdf7"/><path d="m188.460938 50.019531-31.6875 18.257813 31.6875 18.257812 31.679687-18.257812zm0 0" fill="#2b6def"/><path d="m125.089844 123.027344-31.703125-35.449219-63.386719-19.320313v113.484376l31.683594 18.257812 9.070312-62.796875 22.632813 4.101563v-.019532l31.703125 18.257813zm0 0" fill="#2891f9"/><path d="m61.703125 50-31.703125 18.257812 95.070312 54.789063 14.375-8.28125 17.328126-9.976563zm0 0" fill="#2b6def"/><path d="m61.703125 123.027344h-.019531v76.953125l31.703125-18.257813v-40.4375zm0 0" fill="#2bbdf7"/></g></svg>

<svg xmlns="http://www.w3.org/2000/svg" xmlns:xlink="http://www.w3.org/1999/xlink" width="250px" height="250px" viewBox="0 0 250 250" version="1.1">
<g id="surface1">
<path style=" stroke:none;fill-rule:evenodd;fill:rgb(16.862746%,74.117649%,96.862745%);fill-opacity:1;" d="M 103.796875 112.402344 L 125.070312 159.5625 L 156.734375 141.304688 L 156.773438 141.304688 L 156.773438 104.792969 Z M 103.796875 112.402344 "/>
<path style=" stroke:none;fill-rule:evenodd;fill:rgb(15.686275%,56.862748%,97.647059%);fill-opacity:1;" d="M 197.585938 77.40625 L 177.871094 69.972656 L 156.753906 68.257812 L 156.753906 181.664062 L 188.4375 199.921875 L 213.476562 148.835938 L 197.703125 99.289062 Z M 197.585938 77.40625 "/>
<path style=" stroke:none;fill-rule:evenodd;fill:rgb(16.862746%,74.117649%,96.862745%);fill-opacity:1;" d="M 195.8125 68.277344 L 188.457031 86.511719 L 188.457031 200 L 220.140625 181.742188 L 220.140625 68.277344 Z M 195.8125 68.277344 "/>
<path style=" stroke:none;fill-rule:evenodd;fill:rgb(16.862746%,42.745098%,93.725491%);fill-opacity:1;" d="M 188.460938 50.019531 L 156.773438 68.277344 L 188.460938 86.535156 L 220.140625 68.277344 Z M 188.460938 50.019531 "/>
<path style=" stroke:none;fill-rule:evenodd;fill:rgb(15.686275%,56.862748%,97.647059%);fill-opacity:1;" d="M 125.089844 123.027344 L 93.386719 87.578125 L 30 68.257812 L 30 181.742188 L 61.683594 200 L 70.753906 137.203125 L 93.386719 141.304688 L 93.386719 141.285156 L 125.089844 159.542969 Z M 125.089844 123.027344 "/>
<path style=" stroke:none;fill-rule:evenodd;fill:rgb(16.862746%,42.745098%,93.725491%);fill-opacity:1;" d="M 61.703125 50 L 30 68.257812 L 125.070312 123.046875 L 139.445312 114.765625 L 156.773438 104.789062 Z M 61.703125 50 "/>
<path style=" stroke:none;fill-rule:evenodd;fill:rgb(16.862746%,74.117649%,96.862745%);fill-opacity:1;" d="M 61.703125 123.027344 L 61.683594 123.027344 L 61.683594 199.980469 L 93.386719 181.722656 L 93.386719 141.285156 Z M 61.703125 123.027344 "/>
</g>
</svg>
